icons/op-mark-all-read-24.svg

<svg width="24" height="24" viewBox="0 0 24 24" fill="none" xmlns="http://www.w3.org/2000/svg">
<path fill-rule="evenodd" clip-rule="evenodd" d="M13.6451 4.67969C12.9734 5.12313 12.4498 5.75313 12.1407 6.49C11.8315 7.22719 11.7505 8.03813 11.9082 8.82063C12.0656 9.60313 12.4548 10.3216 13.0262 10.886C13.5976 11.45 14.3254 11.8341 15.1179 11.9897C15.9101 12.1453 16.7316 12.0656 17.4783 11.7603C18.0657 11.52 18.586 11.1485 18.9997 10.6778V15.7647C18.9997 16.6384 18.6312 17.4762 17.9748 18.0941C17.3184 18.7119 16.4282 19.0587 15.4999 19.0587H6.50004C6.73245 19.3512 7.03459 19.5887 7.38156 19.7519C7.61298 19.8609 7.98584 19.9437 8.49981 20H15.4999C16.6932 20 17.838 19.5537 18.6817 18.7594C19.5257 17.9653 19.9998 16.8878 19.9998 15.7647V12C19.9998 11.3505 19.7201 10.7626 19.2683 10.337C19.2829 10.3164 19.2972 10.2956 19.3114 10.2747C19.7603 9.61126 20 8.83126 20 8.03376C20 6.96375 19.5694 5.93782 18.8034 5.18156C18.0374 4.425 16.9982 4 15.9148 4C15.107 4 14.3171 4.23656 13.6451 4.67969ZM13.8722 8.20376L14.336 7.74563L15.3311 8.72782L17.4935 6.59313L17.959 7.05001L15.3311 9.64407L13.8722 8.20376Z" fill="black"/>
<path d="M17.617 15.9335C17.617 16.4916 17.4008 17.0285 17.0127 17.4341C16.6245 17.8397 16.094 18.0835 15.5295 18.115C15.5232 18.115 15.4978 18.1156 15.4533 18.1165L15.4044 18.1175H6.21294C5.6475 18.1175 5.10365 17.9041 4.69293 17.521C4.28222 17.1375 4.03553 16.6138 4.00332 16.0566C4.00332 16.0515 4.00284 16.0347 4.00203 16.006L4 15.9329V10.7919C4 10.2966 4.24503 9.83534 4.65209 9.55347C4.65707 9.55042 4.67637 9.53827 4.71015 9.51701L4.74905 9.49253L6.35969 8.54671C8.82957 7.09632 10.2255 6.27659 10.5478 6.08752C10.6152 6.04784 10.6909 6.0244 10.769 6.01846C10.8473 6.01252 10.9257 6.0244 10.9984 6.05315C11.0019 6.05469 11.0146 6.06085 11.0366 6.07155L11.0694 6.08752L11.1101 6.11137C11.149 6.13424 11.1711 6.14723 11.1767 6.15034C11.0462 6.46971 10.9483 6.80534 10.8862 7.15346L10.8802 7.14999C10.8692 7.14359 10.8453 7.12964 10.8085 7.10784L5.29921 10.3416L10.8085 13.1791C12.0625 12.5332 12.7591 12.1741 12.8982 12.1022C13.2249 12.3388 13.5809 12.5375 13.9597 12.6928L11.0449 14.195C10.9841 14.226 10.918 14.245 10.85 14.2503C10.7819 14.256 10.7135 14.2475 10.6484 14.2266L10.6332 14.2203C10.6205 14.215 10.6001 14.2067 10.5724 14.195L5.02131 11.3344V15.9329C5.02131 16.2282 5.13386 16.5125 5.3364 16.7297C5.53893 16.9469 5.81683 17.081 6.11466 17.1054C6.11906 17.1054 6.13487 17.106 6.16226 17.1072L6.21294 17.1094H15.4044C15.7035 17.1091 15.9917 16.9982 16.2115 16.7979C16.4316 16.5979 16.5671 16.3232 16.5917 16.0288C16.592 16.0225 16.5933 15.9904 16.5957 15.9329V13.0313C16.9489 12.9847 17.2906 12.9028 17.617 12.7888V15.9335Z" fill="black"/>
</svg>

<svg xmlns="http://www.w3.org/2000/svg" width="24" height="24" viewBox="0 0 24 24"><path d="M13.645 4.68a4.126 4.126 0 0 1 5.158.502A4.007 4.007 0 0 1 20 8.034a4 4 0 0 1-.732 2.303A2.28 2.28 0 0 1 20 12v3.765a4.11 4.11 0 0 1-1.318 2.994A4.645 4.645 0 0 1 15.5 20h-7c-.514-.056-.887-.139-1.118-.248a2.464 2.464 0 0 1-.882-.693h9c.928 0 1.818-.347 2.475-.965A3.201 3.201 0 0 0 19 15.765v-5.087a4.075 4.075 0 0 1-1.522 1.082 4.132 4.132 0 0 1-2.36.23 4.107 4.107 0 0 1-2.092-1.104 4.024 4.024 0 0 1-1.118-2.065 3.986 3.986 0 0 1 .233-2.331 4.04 4.04 0 0 1 1.504-1.81Zm.227 3.524 1.459 1.44 2.628-2.594-.466-.457-2.162 2.135-.995-.982Z"/><path d="M17.617 15.934c0 .558-.216 1.095-.604 1.5a2.22 2.22 0 0 1-1.483.681l-.077.001-.049.001H6.213a2.228 2.228 0 0 1-1.52-.596 2.178 2.178 0 0 1-.69-1.464l-.001-.051L4 15.933v-5.141c0-.495.245-.957.652-1.239l.058-.036.039-.024 1.611-.946 4.188-2.459a.508.508 0 0 1 .45-.035l.039.019.032.016.041.023.067.039c-.131.32-.229.655-.291 1.003l-.006-.003a2.018 2.018 0 0 1-.071-.042l-5.51 3.234 5.51 2.837 2.089-1.077c.327.237.683.435 1.062.591l-2.915 1.502a.513.513 0 0 1-.397.032l-.015-.007a1.772 1.772 0 0 1-.061-.025l-5.551-2.861v4.599c0 .295.113.579.315.797.203.217.481.351.779.375l.047.002.051.002h9.191c.3 0 .588-.111.808-.311a1.174 1.174 0 0 0 .384-.865v-2.902a5.083 5.083 0 0 0 1.021-.242v3.145Z"/></svg>
